dist/svgs/devui-icons/code-editor/code-editor-save.svg

<?xml version="1.0" encoding="UTF-8"?>
<svg width="16px" height="16px" viewBox="0 0 16 16" version="1.1" xmlns="http://www.w3.org/2000/svg" xmlns:xlink="http://www.w3.org/1999/xlink">
    <!-- Generator: Sketch 52.2 (67145) - http://www.bohemiancoding.com/sketch -->
    <title>icon_save</title>
    <desc>Created with Sketch.</desc>
    <g id="icon_save" stroke="none" stroke-width="1" fill="none" fill-rule="evenodd">
        <path d="M4,3 L12,3 C12.5522847,3 13,3.44771525 13,4 L13,12 C13,12.5522847 12.5522847,13 12,13 L6,13 C4.34314575,13 3,11.6568542 3,10 L3,4 C3,3.44771525 3.44771525,3 4,3 Z M5,4 L5,8 L11,8 L11,4 L5,4 Z M9,6 L10,6 L10,8 L9,8 L9,6 Z" id="Shape" fill="#293040"></path>
    </g>
</svg>

<svg xmlns="http://www.w3.org/2000/svg" viewBox="0 0 16 16"><path fill-rule="evenodd" d="M4 3h8a1 1 0 011 1v8a1 1 0 01-1 1H6a3 3 0 01-3-3V4a1 1 0 011-1zm1 1v4h6V4H5zm4 2h1v2H9V6z"/></svg>
